X:1
T:James Gibb editions
T:L'amata ninfa mia - Nanino
%%score [ 1 2 3 ]
L:1/8
Q:1/4=108
M:2/2
K:F
V:1 treble nm="Soprano" snm="S"
V:2 treble nm="Alto" snm="A"
V:3 bass nm="Bass" snm="B"
V:1
"^L'amata ninfa mia""^Giovanni Maria Nanino\n(1544-1607)" G4 G4- | G2 c2 B2 G2 | A4 A2 c2 | %3
w: L'a- ma\-|* ta nin- fa|mi- a, Più|
 c3 d c2 B2 |[M:2/2] A6 B2 | c2 A2 G4 | A4 | A4 | G6 B2 | B2 B2 A4- | A2 d2 d2 d2 | c4 B4 | %12
w: sag- gia~~e bel- la~~As-|sai che|dol- ce~~e pi-|a.|Di-|cea con|il par- lar:|* Dol- ce pa-|sto- re|
[M:2/2] z2 d2 c3 B | A2 G2 A2 d2 | (c2 BA G2) F2 | G4 A4 :| %16
w: A te so-|lo do- nai Que-|sto * * * mio|co- re.|
V:2
 E4 E4- | E2 C2 D2 E2 | F4 F2 A2 | A3 B A2 G2 |[M:2/2] ^F6 G2 | E2 F4 E2 | F4 | F4 | E6 G2 | %9
w: L'a- ma\-|* ta nin- fa|mi- a, Più|sag- gia~~e bel- la~~As-|sai che|dol- ce~~e pi-|a.|Di-|cea con|
 G2 G2 (^FEFG | ^F2) B2 B2 B2 | A4 B4 |[M:2/2] z2 B2 A3 G | ^F2 G2 F2 A2 | (A2 G=F E2) G2 | %15
w: il par- lar: * * *|* Dol- ce pa-|sto- re|A te so-|lo do- nai Que-|sto * * * mio|
 (F2 E2) F4 :| %16
w: co\- * re.|
V:3
 C4 C4- | C2 A,2 B,2 C2 | F,4 F,2 F,2 | F,2 F,2 F,2 G,2 |[M:2/2] D,6 G,2 | A,2 F,2 C4 | F,4 | F,4 | %8
w: L'a- ma\-|* ta nin- fa|mi- a, Più|sag- gia~~e bel- la~~As-|sai che|dol- ce~~e pi-|a.|Di-|
 C6 G,2 | G,2 G,2 D4- | D2 B,2 B,2 B,2 | F,4 B,4 |[M:2/2] z2 B,,2 F,3 G, | D,2 _E,2 (D,=E,F,G, | %14
w: cea con|il par- lar:|* Dol- ce pa-|sto- re|A te so-|lo do- nai * * *|
 A,2) B,2 C2 D2 | C4 F,4 :| %16
w: * Que- sto mio|co- re.|

